X: 40540
T: Tommy People's Quarter Tone
R: jig
M: 6/8
K: Gmajor
"slide"Bee B/c/d B|AFD {E}DFA|Bef ~g2a|b.ge {f}e3||
B/c/d f dBA|FdF EDB,|D3 dBA|FEE E3||
~B2 e B/c/d B|AFD DFA|~B2e ~g2B|b.ge [e3B3]||
B/c/d f dBA|FdF {EF}EDB,|D3 "slide"dBA|FEE E3||
~B2 A Bed|~B2 E EFD|~E2 F EFA|B.gf e3||
b^ge dBA|{Bc}BAF {EF}EDB,|D3 dBA|FEE E3||
~B2 A ~B2 A|{c}BEE {F}EFD|~E2 F EFA|~B2 .g e.ga||
b^ge "slide"dBA|{c}BAF {EF}EDB,|D3 dBA|{FG}FEE [E2B,2] F||
~G3 ~B2 A|DGB "slide"dBG|[A3F3] ~c2 B|~c2 b agf||
gdc ~B2 c|dgd "slide"B3|~c3 ~d3|{B}c2 e BGE||
~G3 ~B2 A|DGB dBG|[A3F3] ~c2 B|~c2 b agf||
gdc ~B2 c|dgd "slide"B2 A|GBd {B}c2 e|BGE E3||
e2 b b^ge|"slide"dBG GAB|{cB}c2 B cde|~a3 a.ge||
d.gb {^ga}^gfe|{Bc}BAG dBG|cec ~d3|{B}c2 e BGE||
G.gb b^ge|dBG GAB|{B}c2 B cde|~a3 a.ge||
d.gb {^ga}^gfe|{Bc}BAG dBG|ced {B}c2 A|BGE {F}E3||

